resources/svg/message-no-access.svg

<svg width="15" height="15" viewBox="0 0 15 15" fill="none" xmlns="http://www.w3.org/2000/svg">
<path d="M7.5 4C6.11929 4 5 5.11929 5 6.5C5 7.00954 5.15244 7.48349 5.4142 7.8787L8.8787 4.4142C8.48349 4.15244 8.00954 4 7.5 4Z" fill="black"/>
<path d="M7.5 9C6.99046 9 6.51653 8.84756 6.12131 8.58581L9.58581 5.12131C9.84756 5.51653 10 5.99046 10 6.5C10 7.88071 8.88071 9 7.5 9Z" fill="black"/>
<path fill-rule="evenodd" clip-rule="evenodd" d="M0 1.49935C0 0.670259 0.671165 0 1.5 0H13.5C14.3288 0 15 0.670259 15 1.49935V10.4935C15 11.3226 14.3288 11.9928 13.5 11.9928H9.7675L7.91594 14.7683C7.8232 14.9074 7.66712 14.9909 7.5 14.9909C7.33288 14.9909 7.1768 14.9074 7.08406 14.7683L5.2325 11.9928H1.5C0.671165 11.9928 0 11.3226 0 10.4935V1.49935ZM4 6.5C4 4.567 5.567 3 7.5 3C9.433 3 11 4.567 11 6.5C11 8.433 9.433 10 7.5 10C5.567 10 4 8.433 4 6.5Z" fill="black"/>
</svg>

<svg viewBox="0 0 15 15" fill="none" xmlns="http://www.w3.org/2000/svg" fill="currentColor"><path d="M7.5 4a2.5 2.5 0 00-2.086 3.879L8.88 4.414A2.488 2.488 0 007.5 4zm0 5c-.51 0-.983-.152-1.379-.414L9.586 5.12A2.5 2.5 0 017.5 9z" fill="currentColor"/><path fill-rule="evenodd" clip-rule="evenodd" d="M0 1.5C0 .67.671 0 1.5 0h12c.829 0 1.5.67 1.5 1.5v8.993c0 .83-.671 1.5-1.5 1.5H9.768l-1.852 2.775a.5.5 0 01-.832 0l-1.851-2.775H1.5c-.829 0-1.5-.67-1.5-1.5V1.5zm4 5a3.5 3.5 0 117 0 3.5 3.5 0 01-7 0z" fill="currentColor"/></svg>
